X:69
T: Fang mianhua
N: C1567
O: China,Shandong, Cangshan
S: III, 360]
R: Xiaodiao]
M: 2/4
L: 1/16
K: D
A3Bd2f2 | e2dBF4 |
A3dB2A2 | F2FED4 |
F3EF2FE | FED2E4 |
B3AB2BA | FAFAd2BA | BdBABdBA | FED4FE | D8

@@@ Tune index: 6624
